packages/gestalt-icons-android/vr-theme/ic_vr_cog_gestalt.svg

<svg width="24" height="25" viewBox="0 0 24 25" fill="none" xmlns="http://www.w3.org/2000/svg">
<path fill-rule="evenodd" clip-rule="evenodd" d="M16.9997 12.0012C16.9997 14.7626 14.7611 17.0012 11.9997 17.0012C9.2383 17.0012 6.99972 14.7626 6.99972 12.0012C6.99972 9.23977 9.2383 7.00119 11.9997 7.00119C14.7611 7.00119 16.9997 9.23977 16.9997 12.0012ZM14.9997 12.0012C14.9997 13.658 13.6566 15.0012 11.9997 15.0012C10.3429 15.0012 8.99972 13.658 8.99972 12.0012C8.99972 10.3443 10.3429 9.00119 11.9997 9.00119C13.6566 9.00119 14.9997 10.3443 14.9997 12.0012Z" fill="black"/>
<path fill-rule="evenodd" clip-rule="evenodd" d="M16.1334 1.71014C15.9545 1.04249 15.4285 0.475044 14.6982 0.306275C12.899 -0.109509 11.0529 -0.0955331 9.30101 0.309111C8.57072 0.477795 8.04414 1.04506 7.86507 1.71337L7.29291 3.84872L5.15433 3.27568C4.48587 3.09657 3.73053 3.269 3.21927 3.81843C2.61267 4.47032 2.07018 5.19971 1.60707 6.00184C1.14415 6.80363 0.783847 7.63777 0.522615 8.48867C0.30233 9.20619 0.530669 9.94664 1.02006 10.436L2.58542 12.0014L1.02192 13.5649C0.532716 14.0541 0.304729 14.7937 0.523715 15.5104C1.04912 17.2301 1.96011 18.8362 3.21986 20.1866C3.73117 20.7347 4.48559 20.9065 5.15326 20.7276L7.2925 20.1544L7.86571 22.2936C8.04461 22.9613 8.5706 23.5287 9.30093 23.6975C11.1005 24.1133 12.947 24.0992 14.6992 23.6942C15.4294 23.5255 15.9558 22.9583 16.1349 22.29L16.7071 20.1546L18.8449 20.7274C19.5135 20.9065 20.2689 20.7341 20.7801 20.1846C21.3864 19.5328 21.9287 18.8037 22.3917 18.0018C22.8548 17.1996 23.2153 16.3651 23.4765 15.5137C23.6967 14.7962 23.4684 14.0559 22.979 13.5666L21.4138 12.0014L22.9767 10.4385C23.466 9.94928 23.6939 9.20966 23.4749 8.49289C22.9495 6.77322 22.0384 5.16718 20.7786 3.81677C20.2673 3.2687 19.5129 3.09693 18.8452 3.27582L16.7065 3.84891L16.1334 1.71014ZM9.79227 2.24839C11.2283 1.92302 12.7368 1.91246 14.2063 2.24539L14.7746 4.36654C15.0605 5.43348 16.1572 6.06664 17.2241 5.78076L19.3453 5.21239C20.3685 6.31868 21.1136 7.63046 21.5498 9.037L19.9996 10.5872C19.2186 11.3682 19.2186 12.6346 19.9996 13.4156L21.5519 14.9679C21.3356 15.662 21.0394 16.344 20.6596 17.0018C20.28 17.6594 19.8377 18.2566 19.3449 18.7908L17.2247 18.2227C16.1578 17.9368 15.0611 18.57 14.7752 19.6369L14.2077 21.755C12.7714 22.0806 11.2626 22.0913 9.79284 21.7584L9.22435 19.6367C8.93847 18.5698 7.84179 17.9366 6.77486 18.2225L4.65324 18.791C3.63011 17.6847 2.88504 16.3729 2.44885 14.9664L3.99963 13.4156C4.78068 12.6346 4.78068 11.3682 3.99963 10.5872L2.4472 9.03473C2.66347 8.34096 2.95951 7.65935 3.33912 7.00184C3.7189 6.34404 4.16139 5.74663 4.65434 5.21226L6.77527 5.78057C7.8422 6.06645 8.93888 5.43329 9.22476 4.36635L9.79227 2.24839Z" fill="black"/>
</svg>

<svg xmlns="http://www.w3.org/2000/svg" width="24" height="24"><path d="M12 7a5 5 0 1 0 0 10 5 5 0 0 0 0-10m3 5a3 3 0 1 1-6 0 3 3 0 0 1 6 0m1.13-10.29A2 2 0 0 0 14.7.31a12 12 0 0 0-5.4 0c-.73.17-1.26.74-1.43 1.4l-.58 2.14-2.14-.57a2 2 0 0 0-1.93.54 12 12 0 0 0-2.7 4.67c-.22.72.01 1.46.5 1.95L2.59 12l-1.57 1.56a2 2 0 0 0-.5 1.95 12 12 0 0 0 2.7 4.68c.51.54 1.27.72 1.93.54l2.14-.58.58 2.14c.17.67.7 1.24 1.43 1.4a12 12 0 0 0 5.4 0 2 2 0 0 0 1.43-1.4l.58-2.14 2.13.58c.67.18 1.43 0 1.94-.55a12 12 0 0 0 2.7-4.67 2 2 0 0 0-.5-1.94L21.4 12l1.57-1.56c.49-.5.71-1.23.5-1.95a12 12 0 0 0-2.7-4.67 2 2 0 0 0-1.93-.54l-2.14.57zm-6.34.54a10 10 0 0 1 4.42 0l.56 2.12a2 2 0 0 0 2.45 1.41l2.13-.57a10 10 0 0 1 2.2 3.83L20 10.59a2 2 0 0 0 0 2.83l1.55 1.55a10 10 0 0 1-2.2 3.82l-2.13-.57a2 2 0 0 0-2.44 1.42l-.57 2.12a10 10 0 0 1-4.42 0l-.57-2.12a2 2 0 0 0-2.45-1.42l-2.12.57a10 10 0 0 1-2.2-3.82L4 13.42a2 2 0 0 0 0-2.83L2.45 9.03a10 10 0 0 1 2.2-3.82l2.13.57a2 2 0 0 0 2.44-1.41z"/></svg>
